X: 17248
T: Herbert Smith's
R: polka
M: 2/4
K: Fmajor
|:d/d/|Bd Bd|B/B/B/B/ Bd|Bd Bd|c/c/c/c/ ce|
ce ce|e/f/f/f/ f>g|1 ag fe|d/d/d/d/ d:|2 ae fd|g2 g||
K: D Major
|:z|AB/c/ de|fg a2|a/a/a/a/ a/a/a/a/|f/f/f d2|
AB/c/ de|fg a2|a2 e2|a2 d:|
K: G Major
|:e/f/|gB eB|e/e/e/e/ eB|eB eB|c2 ce/e/|
[1 ae ae|e/f/f/f/ fd|ed ed|1 B2 B:|
[2 a/a/a/a/ ae|g/g/g/g/ gf/e/|dd ef|g2 g||

